packages/kaspersky-hexa-ui-icons/src/iconsSVGs/16/Twitter.svg

<svg width="16" height="16" viewBox="0 0 16 16" fill="none" xmlns="http://www.w3.org/2000/svg">
<path d="M14 4.43802C13.5583 4.62576 13.0839 4.75209 12.5859 4.80907C13.0945 4.51753 13.4845 4.05592 13.6682 3.50553C13.1928 3.77542 12.6657 3.97155 12.1045 4.07757C11.6555 3.61949 11.0158 3.33325 10.3078 3.33325C8.94819 3.33325 7.84608 4.38855 7.84608 5.68945C7.84608 5.87409 7.86824 6.05431 7.90977 6.22615C5.86385 6.12808 4.05008 5.18985 2.83535 3.76394C2.62398 4.11202 2.5026 4.51665 2.5026 4.9491C2.5026 5.76631 2.93689 6.48765 3.59732 6.90995C3.19395 6.89758 2.81412 6.79156 2.48229 6.61531C2.48229 6.62547 2.48229 6.63475 2.48229 6.64491C2.48229 7.78678 3.33056 8.73915 4.45714 8.95516C4.25084 9.00905 4.033 9.03777 3.80824 9.03777C3.64994 9.03777 3.49533 9.02275 3.34533 8.9958C3.65871 9.93183 4.5679 10.6134 5.64509 10.6324C4.80282 11.2645 3.74132 11.6413 2.58752 11.6413C2.38906 11.6413 2.19292 11.6303 2 11.6082C3.08965 12.2765 4.38329 12.6666 5.77385 12.6666C10.3023 12.6666 12.7779 9.0762 12.7779 5.96243C12.7779 5.86039 12.7756 5.7588 12.771 5.65764C13.2523 5.32502 13.67 4.91023 14 4.43802Z" fill="black"/>
</svg>

<svg xmlns="http://www.w3.org/2000/svg" width="16" height="16" fill="none" viewBox="0 0 16 16"><path fill="#000" d="M14 4.438a5.09 5.09 0 0 1-1.4141.371c.5086-.2915.8986-.753 1.0823-1.3035a5.07 5.07 0 0 1-1.5637.572c-.449-.458-1.0887-.7442-1.7967-.7442-1.3596 0-2.4617 1.0553-2.4617 2.3562 0 .1846.0221.3648.0637.5366C5.8638 6.1282 4.05 5.19 2.8354 3.764a2.274 2.274 0 0 0-.3328 1.1852c0 .8172.4343 1.5386 1.0947 1.9609a2.54 2.54 0 0 1-1.115-.2947v.0296c0 1.1419.8483 2.0943 1.9748 2.3103a2.57 2.57 0 0 1-.6489.0826c-.1583 0-.3129-.015-.4629-.042.3134.936 1.2226 1.6176 2.2998 1.6366-.8423.6321-1.9038 1.0089-3.0576 1.0089-.1984 0-.3946-.011-.5875-.0331 1.0896.6683 2.3833 1.0584 3.7739 1.0584 4.5284 0 7.004-3.5904 7.004-6.7042q0-.153-.0069-.3048A4.9 4.9 0 0 0 14 4.438"/></svg>
